X: 1
T: Swaggering Boney
T: Travel by Steam
O: Longborough
C: Trad
R: Morris
Q: 1/4=120
M: 6/8
L: 1/8
K: D
Z: ABC transcription by Verge Roller
|: A | "D" FED FGA | "G" BcB "D" A2 A | "D" d>cd "Em" Bed | "A" cBc "D"d2 :|
|: d | "A" ecA ecA | "A" ecA A2 F | "G" G>AB BcB | "A" GEF "G" G3 |
"D" FGA D3 | "Em" GAB "A" E3 | "D" F>GA "Em" Bed | "A" cBc "D" d2 :|
